src/img/Frame6.svg

<svg width="16" height="32" viewBox="0 0 16 32" fill="none" xmlns="http://www.w3.org/2000/svg">
<path d="M7.24701 4.86002L2.45101 10.341C1.88501 10.988 2.34501 12 3.20401 12H12.796C12.9883 12.0002 13.1765 11.9449 13.3381 11.8409C13.4998 11.7368 13.628 11.5884 13.7075 11.4133C13.7869 11.2383 13.8142 11.044 13.7861 10.8538C13.758 10.6637 13.6757 10.4856 13.549 10.341L8.75301 4.86102C8.65915 4.75361 8.5434 4.66753 8.41352 4.60854C8.28364 4.54956 8.14265 4.51904 8.00001 4.51904C7.85737 4.51904 7.71638 4.54956 7.5865 4.60854C7.45663 4.66753 7.34087 4.75261 7.24701 4.86002Z" fill="#2E2F42"/>
<path d="M7.24701 27.14L2.45101 21.658C1.88501 21.013 2.34501 20 3.20401 20H12.796C12.9883 19.9998 13.1765 20.0551 13.3381 20.1591C13.4998 20.2632 13.628 20.4116 13.7075 20.5867C13.7869 20.7617 13.8142 20.956 13.7861 21.1462C13.758 21.3364 13.6757 21.5144 13.549 21.659L8.75301 27.139C8.65915 27.2464 8.5434 27.3325 8.41352 27.3915C8.28364 27.4505 8.14265 27.481 8.00001 27.481C7.85737 27.481 7.71638 27.4505 7.5865 27.3915C7.45663 27.3325 7.34087 27.2464 7.24701 27.139V27.14Z" fill="#2E2F42"/>
</svg>

<symbol id="icon-Frame6" viewBox="0 0 16 32" fill="black">
<path d="M7.247 4.86l-4.796 5.481c-0.566 0.647-0.106 1.659 0.753 1.659h9.592c0.192 0 0.38-0.055 0.542-0.159s0.29-0.252 0.369-0.428c0.079-0.175 0.107-0.369 0.079-0.559s-0.11-0.368-0.237-0.513l-4.796-5.48c-0.094-0.107-0.21-0.194-0.339-0.252s-0.271-0.090-0.414-0.090c-0.143 0-0.284 0.031-0.413 0.090s-0.246 0.144-0.34 0.251z"></path>
<path d="M7.247 27.14l-4.796-5.482c-0.566-0.645-0.106-1.658 0.753-1.658h9.592c0.192-0 0.38 0.055 0.542 0.159s0.29 0.253 0.369 0.428c0.079 0.175 0.107 0.369 0.079 0.559s-0.11 0.368-0.237 0.513l-4.796 5.48c-0.094 0.107-0.21 0.194-0.339 0.253s-0.271 0.090-0.414 0.090c-0.143 0-0.284-0.030-0.413-0.090s-0.246-0.145-0.34-0.253v0.001z"></path>
</symbol>
